IMB-X-Files/The-Ambassadors-Assets/6610155133cd4fd00ccf5505_﹟22.svg

<svg fill="none" height="104" viewBox="0 0 104 104" width="104" xmlns="http://www.w3.org/2000/svg"><path d="m8.66675 10.6202 14.64785-8.53963 32.4153 18.66913m-47.06315-10.1295 32.41525 18.2992m-32.41525-18.2992v37.4117l7.07985 3.931m7.568 50.0181-14.64785-8.5399v-37.2762m14.64785 45.8161v-37.2764m0 37.2764 32.4153-18.7304v-8.4597m39.6035-31.2321v16.8082l-32.2796 18.6517m32.2796-35.4599-32.2796 18.8414m32.2796-18.8414-32.2796-18.591-7.3239 3.9362m-14.6479.0154v17.0793m0-17.0793 14.6479-8.1697m-14.6479 25.249-2.9838-1.6618m2.9838 1.6618 7.0527-4.202m-39.46795 14.3682 14.64785 8.5397m-14.64785-8.5397 7.07985-4.202m7.568 12.7417 14.7836-8.5397m0 0v20.468l17.6317-10.3017m-17.6317-10.1663-7.5249-4.202m7.5249 4.202v3.6599l2.9838-1.7628 7.0527 3.9814m7.5952 4.2878-7.5952-4.2878m7.5952 4.2878v8.4597m7.3239 4.2278v-16.6185m0 16.6185-7.3239-4.2278m7.3239-12.3907-14.9191-8.5049m0 0 3.2709-1.9324m-3.2709 1.9324v8.1481m0-29.0575 17.4961 10.5729-14.2252 8.4041m-3.2709-18.977v8.8108m0-8.8108 7.5952-4.0819m0-8.1543v8.1543m-4.3243 23.0589-3.2709-1.8897v-8.2765m-24.8201 14.3682v-20.0613l14.7836 8.2333m-14.7836 11.828 7.2587-4.202m-7.2587 4.202-7.568-4.202m14.8267 0 7.5249-4.3561v-3.2699" stroke="#27fff2" stroke-linecap="round" stroke-linejoin="round"/></svg>

<svg width="104" height="104" viewBox="0 0 104 104" fill="none" xmlns="http://www.w3.org/2000/svg">
    <path
        d="M8.66675 10.6202L23.3146 2.08057L55.7299 20.7497M8.66675 10.6202L41.082 28.9194M8.66675 10.6202V48.0319L15.7466 51.9629M23.3146 101.981L8.66675 93.4411V56.1649M23.3146 101.981V64.7046M23.3146 101.981L55.7299 83.2506V74.7909M95.3334 43.5588V60.367L63.0538 79.0187M95.3334 43.5588L63.0538 62.4002M95.3334 43.5588L63.0538 24.9678L55.7299 28.904M41.082 28.9194V45.9987M41.082 28.9194L55.7299 20.7497M41.082 45.9987L38.0982 44.3369M41.082 45.9987L48.1347 41.7967M8.66675 56.1649L23.3146 64.7046M8.66675 56.1649L15.7466 51.9629M23.3146 64.7046L38.0982 56.1649M38.0982 56.1649V76.6329L55.7299 66.3312M38.0982 56.1649L30.5733 51.9629M38.0982 56.1649V59.8248L41.082 58.062L48.1347 62.0434M55.7299 66.3312L48.1347 62.0434M55.7299 66.3312V74.7909M63.0538 79.0187V62.4002M63.0538 79.0187L55.7299 74.7909M63.0538 62.4002L48.1347 53.8953M48.1347 53.8953L51.4056 51.9629M48.1347 53.8953V62.0434M48.1347 32.9859L65.6308 43.5588L51.4056 51.9629M48.1347 32.9859V41.7967M48.1347 32.9859L55.7299 28.904M55.7299 20.7497V28.904M51.4056 51.9629L48.1347 50.0732V41.7967M23.3146 56.1649V36.1036L38.0982 44.3369M23.3146 56.1649L30.5733 51.9629M23.3146 56.1649L15.7466 51.9629M30.5733 51.9629L38.0982 47.6068V44.3369"
        stroke="#27FFF2" stroke-linecap="round" stroke-linejoin="round" />
</svg>
